X:1
T:5 Lieder, Op. 3
T:Letzter Wunsch
T:5 Lieder, Op. 3
T:Clara Faisst
T:3. Letzter Wunsch
T:(Composer)
T:Creative Commons copyright waiver (CC0 1.0 Universal)
T:Creative Commons copyright waiver (CC0 1.0 Universal)
C:Clara Faisst
Z:Clara Faisst
Z:Creative Commons copyright waiver (CC0 1.0 Universal)
%%score 1 { ( 2 4 ) | ( 3 5 ) }
L:1/8
Q:1/4=60
M:3/4
K:Gb
V:1 treble nm="Voice\nGesang"
V:2 treble nm="Piano"
V:4 treble 
V:3 bass 
V:5 bass 
V:1
"^Langsam und leise."!p! E4 F2 | G4 B2 |!<(! (c2 B2) e2!<)! |!>(! f4 B2!>)! | (B2!>(! G2) E2 | %5
w: Wenn mir|einst in|heil’- * gem|We- hen|winkt _ des|
 C4 E2 | (E2 A2) c2!>)! |!pp! B4 z2 | z6 | z6 | z6 |!pp! B,4 B,2 | (C2 E2) G2 |!>(! (C2 B,2) =A,2 | %14
w: To- des-|en- * gels|Gruss,||||wenn durch’s|dun- * kle|Tal _ ich|
[Q:1/4=58] B,4[Q:1/4=56] B, z!>)! |!p![Q:1/4=60] B4 B2 |!<(! (B2 c2) B2!<)! | e4!>(! G2!>)! | %18
w: ge- hen,|von der|Welt _ ich|schei- den|
[Q:1/4=58] (G4[Q:1/4=56] F) z ||[K:Eb]!p![Q:1/4=60] F4 F2 | (G2 B2) e2 | e2 (fe) (cA) | =A4 B2 | %23
w: muss: _|dann möcht’|je- * ne|sü- * * sse _|Wei- se|
!<(! (_c2!<)! e2)!>(! c2!>)! | B4 E2 |"^ritard."[Q:1/4=58] (_c4[Q:1/4=52] B) A[Q:1/4=56] | %26
w: hö- * ren|ich zum|letz- * ten|
"^a tempo"[Q:1/4=60] G4 z2 |!p!!<(! E4 G2 | (A2 E2) =E2 | F4 F2!<)! | %30
w: Mal,|wäh- rend|mei- * ne|See- le|
!mp!!>(! ^F4"^nach     und     nach     immer     leiser     werdend" F2 | G4 G2 | A4!>)!!p! F2 | %33
w: lei- se|auf sich|schwingt zum|
!<(! (F4 B2-!<)! |[Q:1/4=58] B2!>(! A2) c2!>)! |[Q:1/4=56] e6[Q:1/4=52] | %36
w: Him- *|* * mels-|saal.|
[Q:1/4=48] z6[Q:1/4=46][Q:1/4=44][Q:1/4=40] | z6 |] %38
w: ||
V:2
!pp! ([G,B,E]!tenuto!.[B,EG]) ([B,EG]!tenuto!.[EGB]) ([FB]!tenuto!.[B,F]) | %1
 ([B,EG]!tenuto!.[EGB]) ([EGB]!tenuto!.[GBe]) ([GBe]!tenuto!.[EGB]) | %2
!<(! ([EGc]!tenuto!.[Gce]) ([GBe]!tenuto!.[EGB]) ([GBe]!tenuto!.[Beg])!<)! | %3
!>(! ([B=df][FBd] [=DFB][B,DF][I:staff +1] [F,B,=D]!tenuto!.[=D,F,B,])!>)! | %4
 ([E,G,B,][G,B,E][I:staff -1] [B,EG]!tenuto!.[G,B,E]) ([EGB]!tenuto!.[B,EG]) | %5
 ([CEG][EGc] [Gce][EGc] [=G_ce]!tenuto!.[EGc]) | %6
 ([Ace]!tenuto!.[EAc]) ([EAc]!tenuto!.[CEA]) ([CEA]!tenuto!.[A,CE]) | %7
!<(! ([F,B,=D][B,DF] [DFB][FB=d] [GBe]!tenuto!.[FBd]) | %8
 ([=Aeg]!tenuto!.[B=df])!<)! (!>![_cea]!tenuto!.[Bdf])!>(! (!>![cea]!tenuto!.[Bdf]) | %9
 ([GBe]!tenuto!.[FB=d]) ([EGc][=DFB] [EGc]!tenuto!.[DFB])!>)! | %10
 ([CEA][B,EG] [A,_CF][G,B,E][I:staff +1] [F,A,_D]!tenuto!.[E,G,C]) |!pp! ([=D,F,B,]4 [D,F,B,]2 | %12
 [E,G,C]2 [G,CE]2[I:staff -1] [CEG]2 | [EG]4 [EG]2 | ([EG]2 [=DF]2 [B,_DF]2)) | [B,DG]4 [B,DG]2 | %16
!<(! [B,EG]2 [CEA]2!<)!!>(! [B,EG]2 | [EG]4!>)! [EG]2 | %18
"^poco rit."!<(! ([EG]4!<)!!>(! [CEF])[=CEF]!>)! || %19
[K:Eb]!pp!!<(! ([B,DF]/D/F/B/"_dolciss." d/f/b/c'/!<)!!>(! b/f/d/B/)!>)! | %20
!<(! ([EG]/E/G/B/ e/g/b/e'/!<)!!>(! b/g/f/e/)!>)! | %21
!<(! ([Ace]/C/E/A/ c/e/a/c'/!<)!!>(! a/e/c/A/)!>)! | %22
!<(! z/ (E/G/B/ e/g/b/e'/!<)!!>(! b/g/e/B/)!>)! | z/!<(! (_C/E/A/ _c/e/a/g/!<)!!>(! a/e/c/A/)!>)! | %24
!<(! z/ (B,/E/G/ B/e/g/^f/!<)!!>(! g/e/B/G/)!>)! | %25
 z/!<(! (D/=F/_A/!<)! =B/d/=f/a/!>(! f/d/B/A/)!>)! | %26
"_leggiero"!<(! ([B,G]/[EB]/[B,G]/[EB]/ [B,G]/[EB]/[B,G]/[EB]/ [=B,G]/[E=B]/[B,G]/[EB]/)!<)! | %27
!pp!!<(! ([CG]/[Ec]/[CG]/[Ec]/ [Ec]/[Ge]/[Ec]/[Ge]/ [E_d]/[Ge]/[Ed]/[Ge]/) | %28
 ([Ec]/[Ae]/[Ec]/[Ae]/ [Ec]/[Ae]/[Ec]/[Ae]/ [=Ec]/[A=e]/[Ec]/[Ae]/) | %29
 ([Fc]/[Af]/[Fc]/[Af]/ [Fc]/[Af]/[Fc]/[Af]/ [F_d]/[Af]/[Fd]/[Af]/) | %30
 ([^F^c]/[=A^f]/[Fc]/[Af]/ [Fc]/[Af]/[Fc]/[Af]/ [F=d]/[Af]/[Fd]/[Af]/) | %31
 ([Gd]/[Bg]/[Gd]/!<)!!mp![Bg]/"_poco cresc." [Gd]/[Bg]/[Gd]/[Bg]/ [Ge]/[Bg]/[Ge]/[Bg]/) | %32
"_dimin." ([Ae]/[ca]/[Ae]/[ca]/ [Ae]/[ca]/[Ae]/[ca]/ [=Af]/[c=a]/[Af]/[ca]/) | %33
 ([Bf]/[db]/[Bf]/[db]/ [Bf]/[db]/[Bf]/[db]/ [db]/[fd']/[db]/[fd']/) | %34
 ([eb]/[ge']/[eb]/[ge']/ [ec']/[ae']/[ec']/[ae']/ [ec']/[ae']/[ec']/!p![ae']/) | %35
"_morendo   e   ritard."!>(!!8va(! [ge']/[bg']/[ge']/[bg']/ [ge']/[bg']/[ge']/[bg']/ [ge']/[bg']/[ge']/[bg']/ | %36
 [bg']/[e'b']/[bg']/[e'b']/ [bg']/[e'b']/[bg']/[e'b']/ [_c'a']/[e'_c'']/[c'a']/[e'c'']/!>)! | %37
!pp! !fermata![e'b'e'']4!8va)! z2 |] %38
V:3
 [E,,B,,E,]4 [E,,B,,=D,]2 | [E,,B,,E,]4 [E,,B,,E,]2 | [E,,G,,C,]2 [E,,B,,E,]2 [E,,B,,E,]2 | %3
 [B,,,B,,]4 [A,,,A,,]2 | [G,,,G,,]6 | [C,,C,]4 [B,,,B,,]2 | [A,,,A,,]6 | [B,,,B,,]6- | %8
 [B,,,B,,]2 [B,,,B,,]2 [B,,,B,,]2- | [B,,,B,,]2 [B,,,B,,]2 [B,,,B,,]2- | %10
 [B,,,B,,]2 [B,,,B,,]2 [B,,,B,,]2- | ([B,,,B,,].B,,, .B,,.B,,, .B,,.B,,,) | %12
 (.B,,.B,,, .B,,.B,,, .B,,.B,,,) | (.=A,,.=A,,, .B,,.B,,, .C,.C,,) | %14
 (.B,,.B,,, .B,,.B,,, .[B,,,B,,].[A,,,A,,]) | [G,,,G,,] [G,,,G,,]2 [G,,,G,,]2 [F,,,F,,] | %16
 [E,,,E,,] [E,,,E,,]2 [E,,,E,,]2 [D,,,D,,] | %17
 [C,,,C,,]!<(! [C,,C,]2 [C,,C,]2"_poco rit." [C,,C,]-!<)! | %18
!>(! [C,,C,] [B,,,B,,]2!>)! [=A,,,=A,,]2 [A,,,A,,] || %19
[K:Eb]"_una corda"!ped! B,,,/F,/B,/[I:staff -1]D/!ped-up! F/B/d/e/ d/B/F/D/ | %20
!ped! B,/[I:staff +1]G,/B,/[I:staff -1]E/!ped-up![I:staff +1][K:treble] G/B/e/g/ e/B/A/G/ | %21
[K:bass]!ped! A,,/E,/A,/C/!ped-up![I:staff -1] E/A/c/e/ c/A/E/C/ | %22
!ped![I:staff +1] z/ G,/B,/[I:staff -1]E/!ped-up![I:staff +1][K:treble] G/B/e/g/ e/B/G/E/ | %23
[K:bass]!ped! z/ E,/A,/_C/!ped-up![I:staff -1] E/A/_c/B/ c/A/E/C/ | %24
!ped![I:staff +1] z/ E,/G,/B,/[I:staff -1] E/!ped-up!G/B/=A/ B/G/E/B,/ | %25
!ped![I:staff +1] z/ F,/_A,/=B,/[I:staff -1] D/"^ritard."F/A/B/ A/F/D/=B,/!ped-up! | %26
[I:staff +1] ([E,,E,]4 [D,,D,]2 | [C,,C,]4 [_B,,,_B,,]2 | [A,,,A,,]4 [G,,,G,,]2 | %29
 [F,,,F,,]2 [A,,,A,,]2 [_D,,_D,]2) | ([=A,,,=A,,]2 [^F,,,^F,,]2 [=D,,,=D,,]2) | %31
 ([B,,,B,,]2 [G,,,G,,]2 [_D,,_D,]2) | ([C,,C,]2 [A,,,A,,]2 ([E,,E,]2) | %33
 ([D,,D,]2)"_diminuendo" [B,,,B,,]2 [A,,,A,,]2) | ([G,,,G,,]2 [A,,,A,,]2 [A,,E,]2) | %35
!ped! (.[E,,,E,,]/.E,,/.B,,/.E,/)[K:treble] (.B,/.E/.G/.B/) (.B,/.E/.G/.B/) | %36
 (.E/.G/.e/.g/) (.E/.G/.e/.g/)!ped-up!!ped! (.E/.A/.e/.a/)!ped-up! | %37
!ped! !fermata![EBg]4 z2!ped-up! |] %38
V:4
 x6 | x6 | x6 | x6 | x6 | x6 | x6 | x6 | x6 | x6 | x6 | x6 | x6 | _C2 B,2 =A,2 | B,4 x2 | x6 | x6 | %17
 C C2 B,CB, | =A,B,C=C- x2 ||[K:Eb] x6 | x6 | x6 | x6 | x6 | x6 | x6 | x6 | x6 | x6 | x6 | x6 | %31
 x6 | x6 | x6 | x6 |!8va(! x6 | x6 | x4!8va)! x2 |] %38
V:5
 x6 | x6 | x6 | x6 | x6 | x6 | x6 | x6 | x6 | x6 | x6 | x6 | x6 | x6 | x6 | x6 | x6 | x6 | x6 || %19
[K:Eb] B,,,6 | E,,6[K:treble] |[K:bass] A,,6 | E,,6[K:treble] |[K:bass] E,,6 | E,,6 | E,,6 | x6 | %27
 x6 | x6 | x6 | x6 | x6 | x6 | x6 | x6 | x2[K:treble] x4 | x6 | x6 |] %38

